X: 58
T: Praeludia organi op. 5 – Allegro moderato
C: Franciszek Walczyński
%%abc-version 2.0
%%abcx-abcm2ps-target-version 5.9.1 (29 Sep 2008)
%%abc-creator hum2abc beta
%%abcx-conversion-date 2021/10/04 07:38:40
%%abc-edited-by Andrzej Borzym
%%abc-edited-by Krzysztof Stępień
%%abcx-initial-encoding-date 2021-07-26
%%humdrum-veritas 3371864148
%%humdrum-veritas-data 42750443
%%linebreak <none>
%%barnumbers 0
L: 1/4
M: C
N: Derived from pl-kozmzk--mzk-m-159--047_walczynski-franciszek--praeludia-organi-op-5-allegro-moderato.krn
Q: "47. Allegro moderato."
%%staves {1 2}
V: 1 clef=treble
V: 2 clef=bass
K: Ab
[V:1] z4 & z4 | 
[V:2] z4 & F,,A,,/C,/F,E, | 
[V:1] z4 & B,D/F/BA | 
[V:2] z4 & D,3C, | 
[V:1] z4 & GAGF | 
[V:2] z4 & =B,,2G,,=A,,/=B,,/ | 
[V:1] z4 & =E4 | 
[V:2] C,=E,/G,/C_B, & C,4 | 
[V:1] FA/c/fe & F4- | 
[V:2] A,2C2 & F,2=A,2 | 
[V:1] dB_AG & F4- | 
[V:2] D4 & B,4 | 
[V:1] A2G2 & F2-F=E | 
[V:2] C2=B,_B,- & C2C,2 | 
[V:1] F3z & C3z | 
[V:2] B,G,A,z & F,3z | 
[V:1] z4 & C=E/G/cB | 
[V:2] z4 & z4 | 
[V:1] z4 & A3=A | 
[V:2] F,A,/C/FE & z4 | 
[V:1] z4 & BcB_A | 
[V:2] D2=D2 & z4 | 
[V:1] z4 & G4 | 
[V:2] E4- & E,G,/B,/E_D | 
[V:1] Ac/e/a_g & A4- | 
[V:2] E4 & C4 | 
[V:1] !accent!f!accent!e!accent!d!accent!B & A=ABG | 
[V:2] DF2D & DCB,2 | 
[V:1] A2Gc & F3=E | 
[V:2] C2=B,_B,- & CC,3 | 
[V:1] !fermata!F4 & C4 |]  
[V:2] B,A,/G,/A,2 & !fermata!F,,4 |]  


